public/illustrations/_saw.svg

<svg width="277" height="245" viewBox="0 0 277 245" fill="none" xmlns="http://www.w3.org/2000/svg">
<path d="M194.043 109.792L189.201 125.452C188.904 126.443 188.479 127.42 188.182 128.411C187.587 130.818 186.44 132.927 184.571 134.74C182.858 136.425 180.578 137.529 178.171 137.925C173.626 139.016 169.237 139.809 164.692 140.757C163.135 141.026 161.436 141.295 159.581 141.692C159.27 144.948 158.944 148.205 158.774 151.305C158.746 154.137 158.717 156.969 158.548 159.8C158.533 161.499 158.08 163.34 156.933 164.742C155.928 166.143 154.357 167.12 152.799 167.673C148.679 169.188 144.701 170.844 140.566 172.359C139.575 172.628 138.853 173.053 138.145 173.888C137.564 174.596 137.14 175.573 137.125 176.423C136.361 181.364 135.327 186.319 134.421 191.119C134.265 192.394 133.685 193.654 132.821 194.645C131.958 195.636 130.966 196.471 129.678 197.023C124.269 199.94 119.13 203.281 114.146 206.92C103.584 214.453 93.177 222.141 82.7563 229.815C73.4823 236.653 62.9484 241.496 51.7348 243.931C45.9156 245.148 39.8414 244.228 34.631 241.198C30.2701 238.89 26.3341 236.158 22.6812 232.859C15.3895 226.558 9.37199 218.842 4.94033 210.304C-3.24338 193.795 -0.949687 178.249 9.52772 163.623C15.9982 154.633 24.7059 147.921 33.6825 141.791C40.0963 137.331 46.7931 133.296 53.2211 128.821C56.067 126.868 58.6439 124.489 61.3624 122.393C62.0703 121.841 62.9343 121.416 63.7838 121.147C65.6386 120.454 67.6207 119.774 69.3339 118.797C134.733 79.6911 200.132 40.7266 265.389 1.62058C266.38 1.06839 267.385 0.50205 268.518 0.233036C272.355 -0.71559 275.441 1.29493 275.682 5.11775C276.008 15.0288 276.178 24.9398 276.22 34.7234C276.22 35.9977 275.909 37.2719 275.186 38.3905C274.606 39.5232 273.601 40.5001 272.468 41.1939C268.617 43.9831 264.766 46.7723 260.773 49.42C259.485 50.2554 258.352 51.3739 257.488 52.6482C256.624 53.9224 256.044 55.3241 255.747 56.8816C254.855 60.6902 253.694 64.2299 252.518 67.897C251.202 72.1304 248.483 74.0843 243.953 74.4666C239.564 74.7073 235.585 75.5143 231.337 75.8966C230.346 75.8966 229.355 76.3072 228.633 77.0009C227.911 77.6947 227.344 78.5442 227.047 79.5353C225.15 85.1846 222.828 90.5366 221.072 96.1859C220.336 98.7202 218.892 100.971 216.895 102.798C214.899 104.624 212.478 105.87 209.915 106.408C204.662 107.768 199.409 108.702 193.59 109.92L194.015 109.778L194.043 109.792ZM265.7 13.5421L73.3551 128.496L120.716 190.298C121.99 189.746 123.137 188.911 124 187.778C124.864 186.645 125.303 185.243 125.459 183.828C125.926 179.58 127.101 175.488 127.71 171.396C127.866 169.697 128.588 168.154 129.593 166.88C130.598 165.62 132.028 164.643 133.727 164.09C137.564 162.717 141.401 161.061 145.238 159.673C146.371 159.404 147.376 158.852 147.943 157.861C148.665 156.884 148.962 155.751 148.82 154.618C148.877 149.804 149.061 145.132 149.401 140.318C149.897 133.805 151.751 132.135 158.137 131.342C163.248 130.69 168.204 129.459 173.315 128.666C174.731 128.68 176.161 127.986 177.294 127.009C178.426 126.032 179.162 124.758 179.318 123.2C180.791 117.41 182.546 111.902 184.175 106.125C184.911 103.591 185.93 101.184 188.621 100.363C190.036 99.952 191.608 99.5414 193.165 99.2724C197.852 98.3238 202.524 97.5309 207.069 96.5823C208.344 96.3133 209.349 95.7611 210.34 94.9116C211.204 94.0762 211.911 92.9435 212.209 91.8108C214.403 85.4678 216.867 79.3937 219.062 73.0507C219.501 71.2101 220.506 69.6668 221.936 68.4067C223.366 67.1466 225.206 66.4528 227.061 66.3395C232.456 65.6882 237.978 64.7538 243.514 63.8193C244.689 59.5859 246.006 55.3525 247.039 51.2606C247.775 48.0183 249.8 45.0592 252.504 43.1053C256.497 40.316 260.49 37.3852 264.483 34.596C265.191 34.1854 265.771 33.619 266.054 33.0527C266.493 32.3447 266.635 31.6368 266.507 30.7873C266.139 25.1239 265.913 19.4604 265.7 13.2165V13.5421ZM64.5197 133.919C63.8118 134.329 63.2455 134.471 62.8066 134.754C54.9627 139.908 47.1188 144.92 39.4306 150.229C31.7283 155.525 24.0261 161.542 18.2777 169.117C11.0992 178.532 7.87116 189.109 12.0055 200.478C16.8194 213.561 25.9233 223.415 37.3068 231.188C38.2979 231.769 39.2751 232.335 40.4078 232.632C43.367 233.652 46.4817 234.671 49.7382 233.864C59.536 231.556 68.7817 227.266 76.7672 221.263C85.6163 214.835 94.4653 208.421 103.159 201.993C106.019 199.898 108.723 197.944 111.725 195.565L64.3642 133.763L64.5059 133.904L64.5197 133.919Z" fill="#102185"/>
<path d="M58.4453 200.125C51.5075 200.054 43.437 200.111 35.678 197.902C32.1525 196.868 28.7687 194.858 26.2485 192.139C24.2804 190.284 23.0344 187.863 22.6379 185.301C22.0999 182.752 22.6946 179.92 23.714 177.669C25.0166 174.71 26.8856 172.034 29.0377 169.797C36.3436 161.939 45.32 156.091 54.0276 150.088C61.022 145.345 67.3791 146.549 71.9665 153.67C76.8371 161.514 81.283 169.627 85.1625 177.882C86.2668 180.727 86.6634 183.842 86.3377 186.957C86.3094 189.364 85.7148 191.771 84.2848 193.739C82.8548 195.707 80.8584 197.095 78.5788 197.789C75.3082 198.893 71.9099 199.558 68.4977 199.955C65.666 200.493 62.5513 200.323 58.4453 200.564V200.125ZM56.7038 190.2C61.3761 189.676 67.1952 189.463 72.8587 188.529C76.3983 188.005 77.1345 186.447 76.3133 183.049C76.1859 182.2 75.9026 181.35 75.492 180.487C72.0231 173.931 68.5543 167.248 64.9297 160.835C62.9899 157.422 61.5743 156.983 58.4311 159.348C51.1535 164.799 44.0174 170.519 37.0089 176.253C34.7293 178.066 32.1524 180.444 33.101 183.715C34.0497 187.127 37.5895 187.863 40.6902 188.755H41.3982L56.6754 190.058V190.2H56.7038Z" fill="#102185"/>
</svg>

<svg xmlns="http://www.w3.org/2000/svg" width="277" height="245" fill="none" viewBox="0 0 277 245"><path fill="#102185" d="m194.043 109.792-4.842 15.66c-.297.991-.722 1.968-1.019 2.959-.595 2.407-1.742 4.516-3.611 6.329-1.713 1.685-3.993 2.789-6.4 3.185-4.545 1.091-8.934 1.884-13.479 2.832-1.557.269-3.256.538-5.111.935-.311 3.256-.637 6.513-.807 9.613-.028 2.832-.057 5.664-.226 8.495-.015 1.699-.468 3.54-1.615 4.942-1.005 1.401-2.576 2.378-4.134 2.931-4.12 1.515-8.098 3.171-12.233 4.686-.991.269-1.713.694-2.421 1.529-.581.708-1.005 1.685-1.02 2.535-.764 4.941-1.798 9.896-2.704 14.696-.156 1.275-.736 2.535-1.6 3.526-.863.991-1.855 1.826-3.143 2.378-5.409 2.917-10.548 6.258-15.532 9.897-10.562 7.533-20.969 15.221-31.39 22.895-9.274 6.838-19.808 11.681-31.021 14.116-5.82 1.217-11.894.297-17.104-2.733-4.36-2.308-8.297-5.04-11.95-8.339-7.292-6.301-13.309-14.017-17.74-22.555-8.184-16.509-5.89-32.055 4.587-46.681 6.47-8.99 15.178-15.702 24.154-21.832 6.414-4.46 13.111-8.495 19.54-12.97 2.845-1.953 5.422-4.332 8.14-6.428.708-.552 1.572-.977 2.422-1.246 1.855-.693 3.837-1.373 5.55-2.35 65.399-39.106 130.798-78.07 196.055-117.176.991-.553 1.996-1.119 3.129-1.388 3.837-.949 6.923 1.062 7.164 4.885.326 9.91.496 19.822.538 29.605 0 1.275-.311 2.549-1.034 3.668-.58 1.132-1.585 2.11-2.718 2.803-3.851 2.79-7.702 5.578-11.695 8.226a11.7 11.7 0 0 0-3.285 3.228 11.2 11.2 0 0 0-1.741 4.234c-.892 3.808-2.053 7.348-3.229 11.015-1.316 4.233-4.035 6.187-8.565 6.57-4.389.24-8.368 1.047-12.616 1.43-.991 0-1.982.41-2.704 1.104s-1.289 1.543-1.586 2.534c-1.897 5.65-4.219 11.002-5.975 16.65-.736 2.535-2.18 4.786-4.177 6.613-1.996 1.826-4.417 3.072-6.98 3.61-5.253 1.36-10.506 2.294-16.325 3.512l.425-.142zm71.657-96.25L73.355 128.496l47.361 61.802c1.274-.552 2.421-1.387 3.284-2.52.864-1.133 1.303-2.535 1.459-3.95.467-4.248 1.642-8.34 2.251-12.432.156-1.699.878-3.242 1.883-4.516 1.005-1.26 2.435-2.237 4.134-2.79 3.837-1.373 7.674-3.029 11.511-4.417 1.133-.269 2.138-.821 2.705-1.812.722-.977 1.019-2.11.877-3.243.057-4.814.241-9.486.581-14.3.496-6.513 2.35-8.183 8.736-8.976 5.111-.652 10.067-1.883 15.178-2.676 1.416.014 2.846-.68 3.979-1.657 1.132-.977 1.868-2.251 2.024-3.809 1.473-5.79 3.228-11.298 4.857-17.075.736-2.534 1.755-4.941 4.446-5.762 1.415-.411 2.987-.822 4.544-1.09 4.687-.95 9.359-1.742 13.904-2.69 1.275-.27 2.28-.822 3.271-1.671.864-.836 1.571-1.969 1.869-3.101 2.194-6.343 4.658-12.417 6.853-18.76.439-1.84 1.444-3.384 2.874-4.644s3.27-1.954 5.125-2.067c5.395-.652 10.917-1.586 16.453-2.52 1.175-4.234 2.492-8.468 3.525-12.56.736-3.242 2.761-6.2 5.465-8.155 3.993-2.789 7.986-5.72 11.979-8.509.708-.41 1.288-.977 1.571-1.543.439-.708.581-1.416.453-2.266-.368-5.663-.594-11.327-.807-17.57zM64.52 133.92c-.708.41-1.274.552-1.713.835-7.844 5.154-15.688 10.166-23.376 15.475-7.703 5.296-15.405 11.313-21.153 18.888-7.179 9.415-10.407 19.992-6.272 31.361 4.813 13.083 13.917 22.937 25.3 30.71.992.581 1.97 1.147 3.102 1.444 2.959 1.02 6.074 2.039 9.33 1.232 9.798-2.308 19.044-6.598 27.03-12.601 8.848-6.428 17.697-12.842 26.391-19.27 2.86-2.095 5.564-4.049 8.566-6.428l-47.36-61.802.14.141z"/><path fill="#102185" d="M58.445 200.125c-6.937-.071-15.008-.014-22.767-2.223-3.525-1.034-6.91-3.044-9.43-5.763a11.9 11.9 0 0 1-3.61-6.838c-.538-2.549.057-5.381 1.076-7.632 1.303-2.959 3.172-5.635 5.324-7.872 7.306-7.858 16.282-13.706 24.99-19.709 6.994-4.743 13.351-3.539 17.938 3.582 4.871 7.844 9.317 15.957 13.197 24.212 1.104 2.845 1.5 5.96 1.175 9.075-.029 2.407-.623 4.814-2.053 6.782a10.95 10.95 0 0 1-5.706 4.05c-3.27 1.104-6.67 1.769-10.081 2.166-2.832.538-5.947.368-10.053.609zm-1.741-9.925c4.672-.524 10.491-.737 16.155-1.671 3.54-.524 4.276-2.082 3.454-5.48-.127-.849-.41-1.699-.821-2.562-3.469-6.556-6.938-13.239-10.562-19.652-1.94-3.413-3.356-3.852-6.499-1.487-7.277 5.451-14.414 11.171-21.422 16.905-2.28 1.813-4.857 4.191-3.908 7.462.949 3.412 4.489 4.148 7.59 5.04h.707l15.277 1.303v.142z"/></svg>
